fs/window_ad_off_20_filled.svg

<svg viewBox="0 0 20 20" fill="none" xmlns="http://www.w3.org/2000/svg" height="1em" width="1em">
  <path d="M2.85355 2.14645L17.8536 17.1464C18.0488 17.3417 18.0488 17.6583 17.8536 17.8536C17.6583 18.0488 17.3417 18.0488 17.1464 17.8536L15.8787 16.5858C15.4835 16.8476 15.0095 17 14.5 17H5.5C4.11929 17 3 15.8807 3 14.5V5.5C3 4.99046 3.15244 4.51652 3.4142 4.1213L2.14645 2.85355C1.95118 2.65829 1.95118 2.34171 2.14645 2.14645C2.34171 1.95118 2.65829 1.95118 2.85355 2.14645ZM14.7068 15.4139L11 11.7071V12.5C11 12.7761 10.7761 13 10.5 13H6.5C6.22386 13 6 12.7761 6 12.5V8.5C6 8.22386 6.22386 8 6.5 8H7.29289L6.29289 7H4.5V14.25C4.5 14.9404 5.05964 15.5 5.75 15.5H14.25C14.4112 15.5 14.5653 15.4695 14.7068 15.4139ZM8.29289 9H7V12H10V10.7071L8.29289 9ZM15.5 13.3787V7H9.12134L5.14618 3.02484C5.26177 3.00847 5.37989 3 5.5 3H14.5C15.8807 3 17 4.11929 17 5.5V14.5C17 14.6201 16.9915 14.7382 16.9752 14.8538L15.5 13.3787Z" fill="#212121"/>
</svg>

<svg viewBox="0 0 20 20" fill="none" xmlns="http://www.w3.org/2000/svg" height="1em" width="1em">
  <path d="m2.854 2.146 15 15a.5.5 0 0 1-.708.708l-1.267-1.268A2.49 2.49 0 0 1 14.5 17h-9A2.5 2.5 0 0 1 3 14.5v-9c0-.51.152-.983.414-1.379L2.146 2.854a.5.5 0 1 1 .708-.708Zm11.853 13.268L11 11.707v.793a.5.5 0 0 1-.5.5h-4a.5.5 0 0 1-.5-.5v-4a.5.5 0 0 1 .5-.5h.793l-1-1H4.5v7.25c0 .69.56 1.25 1.25 1.25h8.5c.161 0 .315-.03.457-.086ZM8.293 9H7v3h3v-1.293L8.293 9Zm7.207 4.379V7H9.121L5.146 3.025C5.262 3.008 5.38 3 5.5 3h9A2.5 2.5 0 0 1 17 5.5v9c0 .12-.009.238-.025.354L15.5 13.379Z" fill="#212121"/>
</svg>
